modules/hawcons-filled/icons/icon-30-three-fingers-swipe-up.svg

<?xml version="1.0" encoding="UTF-8" standalone="no"?>
<svg width="32px" height="32px" viewBox="0 0 32 32" version="1.1" xmlns="http://www.w3.org/2000/svg" xmlns:xlink="http://www.w3.org/1999/xlink" xmlns:sketch="http://www.bohemiancoding.com/sketch/ns">
    <!-- Generator: Sketch 3.0.3 (7891) - http://www.bohemiancoding.com/sketch -->
    <title>icon 30 three fingers swipe up</title>
    <desc>Created with Sketch.</desc>
    <defs></defs>
    <g id="Page-1" stroke="none" stroke-width="1" fill="none" fill-rule="evenodd" sketch:type="MSPage">
        <g id="icon-30-three-fingers-swipe-up" sketch:type="MSArtboardGroup" fill="#929292">
            <path d="M20,19.950001 L20,28.9902965 C23.9632889,28.7899716 27.1151466,25.5130639 27.1151466,21.5 L27.1151466,18.2468012 L27.1151466,13.5063976 C27.1151466,12.6744372 26.4493494,12 25.6151466,12 C24.7867195,12 24.1151466,12.6764628 24.1151466,13.5063976 L24.1151466,15.7497253 L24.1151466,16 L23.1151466,16 L23.1151466,13.6781559 L23.1151466,6.4912653 C23.1151466,5.66766222 22.4493494,5 21.6151466,5 C20.7867195,5 20.1151466,5.66254437 20.1151466,6.4912653 L20.1151466,13.5082011 L20.1151466,15 L19.1151466,15 L19.1151466,13.5082011 L19.1151466,4.49089813 C19.1151466,3.66749783 18.4493494,3 17.6151466,3 C16.7867195,3 16.1151466,3.67622006 16.1151466,4.49089813 L16.1151466,13.4325233 L16.1151466,16 L15.1151466,16 L15.1151466,13.5 L15.1151466,6.50863659 C15.1151466,5.67543961 14.4493494,5 13.6151466,5 C12.7867195,5 12.1151466,5.66642015 12.1151466,6.50863659 L12.1151466,16.7983451 C10.056747,14.5979243 7.34677642,12.1791206 6.23617935,13.2957153 C5.14900956,14.3887562 7.95050863,17.4007216 11.8625221,23.9830936 C13.5268092,26.7834314 15.6080397,28.7678892 19,28.9809778 L19,28.9809778 L19,19.950001 L15.75,23.200001 L15,22.450001 L19.5,17.950001 L24,22.450001 L23.25,23.200001 L20,19.950001 L20,19.950001 Z" id="three-fingers-swipe-up" sketch:type="MSShapeGroup"></path>
        </g>
    </g>
</svg>

<svg width="32" height="32" xmlns="http://www.w3.org/2000/svg"><path d="M20 19.95v9.04a7.5 7.5 0 0 0 7.115-7.49v-7.993a1.5 1.5 0 1 0-3 0V16h-1V6.491c0-.823-.666-1.491-1.5-1.491-.828 0-1.5.663-1.5 1.491V15h-1V4.491a1.501 1.501 0 0 0-3 0V16h-1V6.509a1.5 1.5 0 1 0-3 0v10.29c-2.058-2.201-4.768-4.62-5.879-3.503-1.087 1.093 1.715 4.105 5.627 10.687 1.664 2.8 3.745 4.785 7.137 4.998V19.95l-3.25 3.25-.75-.75 4.5-4.5 4.5 4.5-.75.75L20 19.95z" fill="#929292" fill-rule="evenodd"/></svg>
